!!!!SEGMENT: pl-wumfc--r244--006_paderewski-ignacy-jan--6-melodies-op-18-vocal-piece.krn
!!!cenid: 18xx:3136
!!!COM: Paderewski, Ignacy Jan
!!!COM-rismID: pe30029943
!!!CDT: 1860/11/18-1941/06/29
!!!CNT: Polish
!!!GTL: 6 Mélodies op. 18
!!!OTL: [Vocal piece]
!!!PDT:
!!!AGN:
!!!SMS-siglum: PL-Wumfc
!!!SMS-shelfmark: R244
!!!SMS-shelfwork: 006 G
!!!SMS-variant:
!!!SMS-altvar:
!!!NIFC-rismSourceID: 1001155729
!!!NIFC-islandoraID: pl-wumfc:155
!!!URL-pdf-islandora: https://repozytorium.nifc.pl/islandora/object/pl-wumfc%3A155/datastream/PDF/view
!!!URL-scan: https://polish.musicsources.pl/pl/lokalizacje/galeria/rekopisy/4664 @EN{Scan on Polish Music Sources Website} @PL{Skany w portalu Dziedzictwo Muzyki Polskiej w otwartym dostępie}
!!!ONB-nifc: Nr VI
!!!AIN: 1 piano 1 soprn
!!!key: G
**kern	**kern	**dynam	**kern
*group2	*group2	*	*group1
*part3	*part2	*part2	*part1
*staff3	*staff2	*	*staff1
*	*I"[Piano]	*	*I"[Sopran]
*	*Ipiano	*	*Isoprn
*	*ICklav	*	*ICvox
*	*IGacmp	*	*IGsolo
*clefF4	*clefG2	*	*clefG2
*k[f#]	*k[f#]	*	*k[f#]
*G:	*G:	*	*G:
*M2/4	*M2/4	*	*M2/4
=1	=1	=1	=1
!LO:TX:t=P:4\right:problem	!	!	!
4GGG\	(>16D<^/LL	.	2r
.	16E</	.	.
.	16G</	.	.
.	16B</JJ)	.	.
[<4D\	4r	.	.
=2	=2	=2	=2
2D\]	2G</ 2B</ 2d</	.	2r
=3	=3	=3	=3
!LO:TX:t=P:4\right:problem	!	!	!
4GGG\	(>16D<^>/LL	.	2r
.	16E</	.	.
.	16G</	.	.
.	16B</JJ)	.	.
[<4D\	4r	.	.
=4	=4	=4	=4
2D\]	2G</ 2B</ 2d</	.	2r
=5	=5	=5	=5
!LO:TX:t=P:4\right:problem	!LO:TX:a:t=mi:color=gray	!	!
4GGG\	(>16D</LL	.	4d/
.	16E</	.	.
.	16A</	.	.
.	16c</JJ)	.	.
[<4D\	4r	.	8a/
.	.	.	8b/
=6	=6	=6	=6
2D\] 2A\ 2c\	2e/ 2a 2cc 2ee	.	(>4cc\
.	.	.	8b\)
.	.	.	8a/
!!LO:LB:g=original
=7	=7	=7	=7
!LO:TX:t=P:4\right:problem	!	!	!
4GGG\	(>16D<^>/LL	.	4g/
.	16E</	.	.
.	16A</	.	.
.	16c</JJ)	.	.
[<4D\	4r	.	8f#/
.	.	.	8e/
=8	=8	=8	=8
2D\] 2F#\ 2c\	2d/ 2a/ 2cc/ 2dd/	.	4d/
.	.	.	8d/
.	.	.	8r
=9	=9	=9	=9
!LO:TX:t=P:4\right:problem	!	!	!
4GGG\	(>16D<^>/LL	.	4d/
.	16E</	.	.
.	16G</	.	.
.	16B</JJ)	.	.
[<4D\	4r	.	8a#X/
.	.	.	8an/
=10	=10	=10	=10
2D\] 2G\ 2B\	2d/ 2f#/ 2b/ 2dd/	.	[>2dd\
=11	=11	=11	=11
4r	4r	.	8dd\]
.	.	.	8b\
4C#X\	(>4g/ [>/4a	.	8a/
.	.	.	8g/
=12	=12	=12	=12
2D\	4f#/ 4a/]	.	4d/
.	4fn/) 4b/	.	8d/
.	.	.	8r
!!LO:LB:g=original
=13	=13	=13	=13
!	!LO:TUP:b:problem=klamra łukowa	!	!
4Cn\	12e/L	.	8r
.	12a/	.	.
.	.	.	8e/
.	12ee/J	.	.
[<4A\	4r	.	8a/
.	.	.	8b/
=14	=14	=14	=14
*	*2\right	*	*
2A\] 2c\ 2e\ 2a\	2ee\ 2aa\ 2eee\	.	4cc\
.	.	.	8b\
.	.	.	8a/
=15	=15	=15	=15
4BB\	8r	.	4g/
*	*Xtuplet	*	*
!	!LO:TUP:a:problem=klamra łukowa	!	!
.	24A/LL	.	.
.	24d#X/	.	.
.	24b/JJ	.	.
[<4A\	4r	.	8f#/
.	.	.	8e/
=16	=16	=16	=16
*2\right	*	*	*
2A\] 2B\ 2d#X\ 2f#\	2a\ 2dd#X\ 2bb\	.	4d#X/
.	.	.	4d#/
=17	=17	=17	=17
!LO:TX:t=P:4\right:problem	!	!	!
4EE\	(>16D<^>/LL	.	4e/
.	16E</	.	.
.	16G</	.	.
.	16B</JJ)	.	.
[<4BB\	4r	.	8f#/
.	.	.	8g/
=18	=18	=18	=18
*2\left	*	*	*
2BB\] 2F#\ 2A\	2B/ 2d#X/ 2b/	.	[>2b/
!!LO:PB:g=original
=19	=19	=19	=19
!	!	!	!LO:TX:t=P:problem=brak zakończenia ligatury
4EE\	(>16BB<^>/LL	.	8b/]
.	16C</	.	.
.	16E</	.	8g/
.	16G</JJ)	.	.
[<4BB\	4r	.	8f#/
.	.	.	8e/
=20	=20	=20	=20
2BB\] 2F#X\ 2A\	2B/ 2d#X/ 2b/	.	4b\
.	.	.	8b\
.	.	.	8r
=21	=21	=21	=21
4AAA\	(>16E</LL	.	4cc\
.	16A</	.	.
.	16c</	.	.
.	16e</JJ)	.	.
4E\	8r	.	8b\
.	8c/ 8e/	.	8a/
=22	=22	=22	=22
!LO:TX:t=P:4\right:problem	!	!	!
4AA\ 4Fn\	8r	.	4cc\
.	8c/ 8fn/ 8cc/	.	.
!LO:TX:t=P:problem=4\middle	!	!	!
4AAA\	8r	.	8b\
.	8C</ 8F#X</	.	8a/
=23	=23	=23	=23
!LO:TX:t=P:4\right:problem	!	!	!LO:TX:t=P:problem=4\middle
4BBB\	8r	.	[>4dd\
.	(>24D</LL	.	.
.	24F#</	.	.
.	24d</JJ)	.	.
4F#\	8r	.	8dd\]
.	8d/	.	8g/
=24	=24	=24	=24
2BB\ 2G\	2d/ 2g/ 2dd/	.	4g/
.	.	.	8g/
.	.	.	8r
!!LO:PB:g=original
=25	=25	=25	=25
!LO:TX:t=P:problem=4\right&colon; global	!	!	!
4BBB\	8r	.	4dd\
.	(>24D<^>/LL	.	.
.	24G</	.	.
.	24d</JJ)	.	.
!LO:TX:t=P:problem=4\middle	!	!	!
4G\	8r	.	8cc\
.	8d/ 8g/	.	8b\
=26	=26	=26	=26
4BB\ 4G#X\	8r	.	4dd\
.	8d/ 8g#X/ 8dd/	.	.
4BBB\	8r	.	8cc\
.	8D</ 8G</	.	8b\
=27	=27	=27	=27
4CC\	8r	.	(>4.ee\
.	(>24E<^>/LL	.	.
.	24G#X</	.	.
.	24e/JJ)	.	.
!LO:TX:t=P:4\left:problem	!	!	!
4G\	8r	.	.
.	8e/	.	8a/)
=28	=28	=28	=28
2C\ 2A\	2e/ 2a/ 2ee/	.	4a/
.	.	.	4r
=29	=29	=29	=29
4CC\	(>12E<^>/L	.	8r
.	12A</	.	.
.	.	.	8a/
.	12e</J)	.	.
!LO:TX:t=P:problem=4\middle	!	!	!
[<4A\	8r	.	8ee\
.	8a/	.	8ee\
=30	=30	=30	=30
!	!	!	!LO:TX:a:t=rit
4A\] 4e\ 4g\	(>4a/ 4ee/ 4gg/	.	(>4gg\
!	!	!LO:DY:rj	!
4c\ 4d\ 4f#\	4a/) 4dd/ 4ff#/	f	8ff#\)
.	.	.	8ee\
!!LO:LB:g=original
=31	=31	=31	=31
!LO:TX:t=P:problem=4\left&colon; global	!	!	!
4BBB\	(>12D<^>/L	.	4dd\
.	12G</	.	.
.	12d</J)	.	.
[<4D\	8r	.	8cc\
.	8d/	.	8b\
=32	=32	=32	=32
!	!	!	!LO:TX:t=P:problem=4\middle
2D\] 2B\	2d/ 2g/ 2dd/	.	(>4dd\
.	.	.	8cc\)
.	.	.	8b\
=33	=33	=33	=33
!LO:TX:t=P:problem=4\middle	!	!	!
4AAA\	(>12E<^>/L	.	8r
.	12B</	.	.
.	.	.	8a/
.	12f#</J)	.	.
4E\	8r	.	8g/
.	[<8B/ [>/8g	.	8a/
=34	=34	=34	=34
2AA\ 2G\	4B/] 4g/] 4b/	.	(>4b/
.	4c#X/	.	8g/)
.	.	.	8e/
=35	=35	=35	=35
!LO:TX:t=P:4\right:problem	!	!	!
4DD\	4F#/ 4d/	.	4r
*	*tuplet	*	*
!	!LO:TUP:a:problem=klamra łukowa	!	!
4F#\	12r	.	4d/
.	12d/L	.	.
.	12dd/J	.	.
=36	=36	=36	=36
!LO:TX:t=P:4\right:problem	!LO:TX:b:i:t=cres_cen_do.:problem=dynamics with extention lines	!LO:HP:i:t=cres-cen-do:ext=ud	!
4DD\	8r	<	[>2dd\
.	8G</ 8e-X/	.	.
!	!LO:TUP:a:problem=klamra łukowa	!	!
4G\	12r	.	.
.	12e-/L	.	.
.	12dd/J	.	.
!!LO:LB:g=original
=37	=37	=37	=37
!LO:TX:t=P:4\right:problem	!	!	!
4DD\	8r	.	2dd\_>
.	8G#X/ 8e/	.	.
!	!LO:TUP:a:problem=klamra łukowa	!	!
4G#X\	12r	.	.
.	12e/L	.	.
.	12dd/J	.	.
=38	=38	=38	=38
!LO:TX:t=P:4\right:problem	!	!	!LO:TX:t=P:4\right:problem
4DD\	8r	.	4.dd\]
.	8A/ 8fn/	.	.
!	!LO:TUP:a:problem=klamra łukowa	!	!
[4A\	12r	[	.
.	12f/L	.	.
.	.	.	8d/
.	12dd/J	.	.
=39	=39	=39	=39
*^	*	*	*
!	!	!LO:TUP:a:problem=klamra łukowa	!	!
4A/]	[<2D\	12r	.	[<2d/
.	.	12f#/L	.	.
.	.	12dd/J	f	.
!	!	!LO:TUP:a:problem=klamra łukowa	!	!
4B-X/	.	12r	.	.
.	.	12g/L	.	.
.	.	12dd/J	.	.
=40	=40	=40	=40	=40
!	!	!LO:TUP:a:problem=klamra łukowa	!	!
4Bn/	2D\]	12r	.	4d/]
.	.	12g#X/L	.	.
.	.	12dd/J	.	.
!	!	!LO:TUP:a:problem=klamra łukowa	!	!
4c/	.	12r	.	4r
.	.	12a/L	.	.
.	.	12dd/J	.	.
=41	=41	=41	=41	=41
!	!	!LO:TUP:a:problem=klamra łukowa	!	!
4c#X/	[<2D\	12r	.	2r
.	.	12a#X/L	.	.
.	.	12dd/J	.	.
!	!	!LO:TUP:a:problem=klamra łukowa	!	!
4d/	.	12r	.	.
.	.	12b/L	>	.
.	.	12dd/J	.	.
=42	=42	=42	=42	=42
!	!	!LO:TUP:a:problem=klamra łukowa	!	!
4e-X/	2D\]	12r	.	2r
.	.	12cc/L	.	.
.	.	12dd/J	.	.
!	!	!LO:TUP:a:problem=klamra łukowa	!	!
4en/	.	12r	.	.
.	.	12g#X/L	]	.
.	.	12dd/J	.	.
!!LO:LB:g=original
=43	=43	=43	=43	=43
*	*	*Xtuplet	*	*
!	!	!LO:TUP:a:problem=klamra łukowa	!LO:DY:rj	!
(>4g#X/	2c\ 2d	12r	p	4d/
.	.	12g#X/L	.	.
.	.	12dd/J	.	.
!	!	!LO:TUP:a:problem=klamra łukowa	!	!
4f#/)	.	12r	.	8a/
.	.	12a/L	.	.
.	.	.	.	8b/
.	.	12dd/J	.	.
*v	*v	*	*	*
=44	=44	=44	=44
!LO:TX:t=P:4\right:problem	!	!	!LO:TX:t=P:problem=4\middle
4.d::>\ 4.f#>::\ 4.cc>::\	4.dd::/ 4.aa::/ 4.fff#::/	.	4cc\
.	.	.	8b\
8r	8r	.	8a/
=45	=45	=45	=45
*^	*	*	*
!	!	!LO:TUP:a:problem=klamra łukowa	!	!
(>4c#X/	[<4B\	12r	.	4g/
.	.	12g/L	.	.
.	.	12dd/J	.	.
!	!	!LO:TUP:a:problem=klamra łukowa	!	!
4d/)	4B\]	12r	.	8f#/
.	.	12g/L	.	.
.	.	.	.	8e/
.	.	12dd/J	.	.
*v	*v	*	*	*
=46	=46	=46	=46
4A>::\ 4e>::\ 4g>::\	4cc::/ 4ee::/ 4ccc::/	.	4a/
4r	4r	.	8f#/
.	.	.	8e/
=47	=47	=47	=47
*^	*	*	*
!	!	!LO:TUP:a:problem=klamra łukowa	!	!
4A/	2D\	12r	.	4d/
.	.	12d/L 12f#/	.	.
.	.	12dd/J	.	.
!	!	!LO:TUP:a:problem=klamra łukowa	!	!
4A#X/	.	12r	.	8f#/
.	.	12d/L 12f#/	.	.
.	.	.	.	8g/
.	.	12dd/J	.	.
*v	*v	*	*	*
=48	=48	=48	=48
*	*ped	*	*
!LO:TX:t=P:4\right:problem	!LO:TUP:a:problem=klamra łukowa	!	!LO:TX:t=P:problem=brak początku łuku
4GG\ 4D\ 4B\	12r	.	(>[>2dd\
.	12g/L 12dd/	.	.
.	12gg/J	.	.
4r	4r	.	.
!!LO:PB:g=original
=49	=49	=49	=49
*	*^	*	*
4r	4r	4ryy	.	8ddL\]
.	.	.	.	8b\
4C#X\	[>4a/	4g\	.	8aJ/)
.	.	.	.	8g/
=50	=50	=50	=50	=50
!	!	!LO:TX:t=P:4\right:problem	!	!
2D\	4a/]	4f#\	.	4f#/
!	!	!LO:TX:t=P:4\right:problem	!	!
.	4b/	4fn\	.	8fn/
.	.	.	.	8r
*	*v	*v	*	*
=51	=51	=51	=51
*^	*	*	*
*	*	*tuplet	*	*
!	!	!LO:TUP:a:problem=klamra łukowa	!	!
(>4G#X/	2C\	12r	.	8r
.	.	12e/L 12g#X/	.	.
.	.	.	.	8e/
.	.	12ee/J	.	.
*	*	*Xtuplet	*	*
4A/)	.	12r	.	8a/
.	.	12e/L 12a/	.	.
.	.	.	.	8b/
.	.	12ee/J	.	.
*v	*v	*	*	*
=52	=52	=52	=52
!	!	!	!LO:TX:t=P:4\right:problem
4A>::\ 4e>::\ 4g>::\ 4cc>::\ 4ee>::\	4ccc::/	.	4cc\
4r	4r	.	8b/
.	.	.	8a/
=53	=53	=53	=53
*^	*	*	*
*	*	*tuplet	*	*
!	!	!LO:TUP:a:problem=klamra łukowa	!	!
(>4E#X/	[<2BB\	12r	.	4g/
.	.	12d#X/L	.	.
.	.	12g/J	.	.
!	!	!LO:TUP:a:problem=klamra łukowa	!	!
4F#/	.	12r	.	4f#/
.	.	12d#/L	.	.
.	.	12f#/J	.	.
=54	=54	=54	=54	=54
!LO:TX:t=P:problem=4\middle	!LO:TX:t=P:4\right:problem	!	!	!
4G/	4BB\]	8r	.	4b/
.	.	8d#X/ 8b/	.	.
!LO:TX:t=P:4\right:problem	!LO:TX:t=P:4\right:problem	!	!	!
4G#X/)	4E\	8r	.	4e/
.	.	8dn/ 8e/	.	.
*v	*v	*	*	*
!!LO:LB:g=original
=55	=55	=55	=55
!LO:TX:t=P:problem=4\middle&colon; global	!	!	!
4AAA\	(>16E<^>/LL	.	4f#/
.	16A</	.	.
.	16c</	.	.
.	16e</JJ)	.	.
[>4E\	4r	.	8cc\
.	.	.	8b\
=56	=56	=56	=56
!LO:TX:t=P:4\left:problem	!	!	!
4E\] 4A\	4c/ 4e/ 4cc/	.	4cc\
4DD\ 4A\	4c/ 4f#/	.	8a/
.	.	.	8f#/
=57	=57	=57	=57
*ped	*Xtuplet	*	*
!	!LO:TUP:a:problem=klamra łukowa	!	!
4GGG\	(>12G<^>/L	.	[<2g/
.	[<12B</	.	.
.	[<12g/J 12B</_>	.	.
[<4D\	4B</_) 4g/_>	.	.
=58	=58	=58	=58
4D\] 4G\	4B</] 4g/]	.	4g/]
4r	4r	.	8g/
.	.	.	8r
=59	=59	=59	=59
!LO:TX:t=P:4\right:problem	!	!	!
4GGG\	(>16E-<X^>/LL	.	4cc\
.	16G</	.	.
.	16A</	.	.
.	16c</JJ)	.	.
!LO:TX:t=P:4\left:problem	!	!	!
[<4E^>\	4r	.	8b\
.	.	.	8a/
=60	=60	=60	=60
2E\] 2G\ 2A\ 2c\	2e-X/ 2g/ 2a/ 2cc/	.	4.cc\
.	.	.	8b\
!!LO:LB:g=original
=61	=61	=61	=61
!	!	!	!LO:TX:t=P:problem=all\middle&colon; global
4GGG\	(>16D<^>/LL	.	4dd\
.	16G</	.	.
.	16B</	.	.
.	16d</JJ)	.	.
[<4D^>\	4r	.	8b\
.	.	.	8a/
=62	=62	=62	=62
2D\] 2G\ 2B\	2d/ 2g/ 2b/ 2dd/	.	4g/
.	.	.	8g/
.	.	.	8r
=63	=63	=63	=63
4GGG\	(>16Fn<^>/LL	.	4dd\
.	16G#X</	.	.
.	16B</	.	.
.	16d</JJ)	.	.
!	!	!	!LO:TX:t=P:problem=8\left
[<4F#^>\	4r	.	8cc\
!	!	!	!LO:TX:t=P:problem=8\left
.	.	.	8b\
=64	=64	=64	=64
2F#\] 2G#X\ 2B\ 2d\	2fn/ 2g#X/ 2b/ 2dd/	.	4dd\
!	!	!	!LO:TX:t=P:problem=8\right
.	.	.	8cc\
.	.	.	8b\
=65	=65	=65	=65
!LO:TX:t=P:4\right:problem	!	!	!
4GGG\	(>16E<^>/LL	.	4.ee\
.	16A</	.	.
.	16c#X</	.	.
.	16e</JJ)	.	.
!LO:TX:t=P:4\left:problem	!	!	!
[<4E^>\	4r	.	.
.	.	.	8a/
=66	=66	=66	=66
2E\] 2A\ 2c#X\	2e/ 2a/ 2cc#X/ 2ee/	.	4a/
.	.	.	4r
!!LO:LB:g=original
=67	=67	=67	=67
*	*^	*	*
!LO:TX:t=P:4\right:problem	!	!	!	!
4GGG\ 4DD\	(>16A/LL^>	4A\	.	8r
.	16cn/	.	.	.
.	16e/	.	.	8a/
.	16g/JJ)	.	.	.
!LO:TX:t=P:4\left:problem	!	!	!	!LO:TX:t=P:problem=all\left&colon; global
[<4A^>\	4r	4ryy	.	8ee\
.	.	.	.	8ee\
*	*v	*v	*	*
=68	=68	=68	=68
!LO:TX:t=P:4\right:problem	!LO:TX:t=P:problem=4\left&colon; global	!	!LO:TX:a:t=rit
4A\] 4d\ 4g\	4a\ 4cc\ 4gg\	.	(>4gg\
4r	4A#X^>/	.	8ff#\)
.	.	.	8ee\
=69	=69	=69	=69
*	*^	*	*
!LO:TX:t=P:problem=4\middle	!	!	!	!LO:TX:t=P:problem=4\middle
4GGG\	(>16B/^>LL	4B\	.	4dd\
.	16d/	.	.	.
.	16g/	.	.	.
.	16b/JJ)	.	.	.
!LO:TX:t=P:4\left:problem	!	!	!	!
4B^>\	4r	4ryy	.	8cc\
.	.	.	.	8b\
*	*v	*v	*	*
=70	=70	=70	=70
!	!	!	!LO:TX:t=P:problem=4\middle
2fn^>\	4r	.	4dd\
.	4g#X/ 4b/ 4dd/	.	8g#X/
.	.	.	8r
=71	=71	=71	=71
*	*^	*	*
!LO:TX:t=P:problem=4\middle&colon; global	!	!LO:TX:t=P:problem=4\middle&colon; global	!	!
4GG\	(>16e^>/LL	4e\	.	8r
.	16gn/	.	.	.
.	16a/	.	.	8b/
.	16cc#X/JJ)	.	.	.
4e^\	4r	4ryy	.	8a/
.	.	.	.	8b/
=72	=72	=72	=72	=72
!	!	!	!	!LO:TX:t=P:problem=4\middle
4r	16e-X^>/LL	4e-\	.	4cc\
.	16g/	.	.	.
.	16a/	.	.	.
.	16ccn/JJ	.	.	.
4e-X^>\	4r	4ryy	.	8b\
.	.	.	.	8b\
!!LO:PB:g=original
=73	=73	=73	=73	=73
!LO:TX:t=P:problem=4\middle	!	!LO:TX:t=P:4\right:problem	!	!LO:TX:t=P:problem=all\left&colon; global
4GG\	(>16d^</LL	4d\	.	[>2dd\
.	16g/	.	.	.
.	16b/	.	.	.
.	16dd/JJ)	.	.	.
!LO:TX:t=P:problem=4\right&colon; global	!	!	!	!
(>4d\	4r	4ryy	.	.
*	*v	*v	*	*
=74	=74	=74	=74
!	!LO:TX:a:t=m.d.	!	!LO:TX:t=P:4\right:problem
2Fn^>/)	4ryy	.	4dd\]
.	4G#X/ 4B/ 4d/	.	8g#X/
.	.	.	8r
=75	=75	=75	=75
4GGG\	(>16E<^>/LL	.	8r
.	16Gn</	.	.
.	16A</	.	8b/
.	16c#X</JJ)	.	.
!LO:TX:t=P:problem=4\middle	!	!	!
4E^>\	4r	.	8a/
.	.	.	8b/
=76	=76	=76	=76
4r	(>16E-X<^>/LL	.	[>2cc\
.	16G</	.	.
.	16A</	.	.
.	16cn</JJ)	.	.
!LO:TX:t=P:4\left:problem	!	!	!
4E\	4r	.	.
=77	=77	=77	=77
4GGG\	(>16D<^>/LL	.	2cc\_>
.	16F#</	.	.
.	16A</	.	.
.	16c</JJ)	.	.
!LO:TX:t=P:problem=4\middle	!	!	!
[<4D\	4r	.	.
=78	=78	=78	=78
2D\] 2F#\	2c</ 2d</	.	4cc\]
.	.	.	8b\
.	.	.	8b\
!!LO:LB:g=original
=79	=79	=79	=79
!LO:TX:t=P:4\right:problem	!	!	!
4GGG\	(>16D<^>/LL	.	[>2dd\
.	16E</	.	.
.	16G</	.	.
.	16B</JJ)	.	.
!LO:TX:t=P:problem=4\middle	!	!	!
[<4D\	4r	.	.
=80	=80	=80	=80
2D\]	2G</ 2B</ 2d</	.	2dd\_>
=81	=81	=81	=81
4GGG\	(>16D<^>/LL	.	2dd\_>
.	16E</	.	.
.	16G</	.	.
.	16B</JJ)	.	.
!LO:TX:t=P:4\left:problem	!	!	!
[<4D\	4r	.	.
=82	=82	=82	=82
2D\] 2G	2G</ 2B</ 2d</	.	4.dd\]
.	.	.	8g/
=83	=83	=83	=83
*	*ped	*	*
4GGG\	(>16D</LL	.	2g/
.	16E</	.	.
.	16G</	.	.
.	16B</JJ)	.	.
!LO:TX:t=P:problem=4\middle	!	!	!
[<4D\	4r	.	.
=84	=84	=84	=84
!LO:TX:t=P:4\left:problem	!	!	!
4D\] 4G\ 4B\	(>16d^>/LL	.	2ryy
.	16e/	.	.
.	16g/	.	.
.	16b/JJ)	.	.
[<4d>\	4rff	.	.
!!LO:LB:g=original
=85	=85	=85	=85
!LO:TX:t=P:problem=4\left&colon; global	!LO:N:vis=16	!	!
4d>\] 4g>\ 4b>\	8dd/LL	.	2ryy
*	*tuplet	*	*
!	!LO:TUP:a:problem=klamra łukowa	!	!
.	24ee/	.	.
.	24gg/	.	.
.	24bb/JJ	.	.
[<4dd>\	4raa	.	.
=86	=86	=86	=86
4dd>\]	4ddd/	.	2ryy
4r	4r	.	.
=87	=87	=87	=87
*2\right	*	*	*
2DD\	2D</ 2F#X</ 2c</	.	2ryy
=88	=88	=88	=88
*2\left	*	*	*
2GGG\ 2GG\	2D</ 2F#</ 2B</	.	2ryy
==	==	==	==
*-	*-	*-	*-
!!!system-decoration: g1[{g2}]
!!!RDF**kern: > = above
!!!RDF**kern: < = below
!!!ENC: Berenika Jozajtis
!!!END: 2021-11-05
!!!EED: Jędrzej Mróz
!!!ESR: 2021-11-08
!!!YEC: Copyright 2022 Narodowy Instytut Fryderyka Chopina (https://polishscores.org)
!!!YEM: Licence CC BY 4.0 (https://creativecommons.org/licenses/by/4.0)
